X:1
T:Ræven og Haren
T:Ræven og Haren
T:Bind 2, No. 9
T:H. Kjerulf
T:B. Bjørnson
C:H. Kjerulf
Z:B. Bjørnson
%%score [ 1 2 3 4 ]
L:1/8
Q:1/4=122
M:3/4
K:A
V:1 treble-8 nm="T1"
V:2 treble-8 nm="T2"
V:3 bass nm="B1"
V:4 bass nm="B2"
V:1
"^Vivace e leggiero (I Springdands-Tempo)"!mf! E2 | c d e2 d c | B c d2 c B | A2 !>!A2 B c | %4
w: 1.Og|Ræ- ven laa un- der|Bir- ke- rod bort- ved|Lyn- gen bort- ved|
w: 2.Og|Ræ- ven lo un- der|Bir- ke- rod bort- ved|Lyn- gen bort- ved|
w: 3.Og|Ræ- ven ven- ted bag|Bir- ke- rod bort- ved|Lyn- gen bort- ved|
 B2 !>!e2!f! E2 | c d f e d c | B c (ed) c B | A2 !>!c2 B E | A2 !>!A2!mf! c2 | B4 B2 | %10
w: Lyn- gen, og|Ha- ren hop- pe- de paa|let- te Fod _ o- ver|Lyn- gen o- ver|Lyn- gen. "Det|er vel|
w: Lyn- gen, og|Ha- ren hop- pe- de i|vil- de Mod _ o- ver|Lyn- gen o- ver|Lyn- gen. "Jeg|er saa|
w: Lyn- gen, og|Ha- ren tum- le- de ham|midt i- mod _ o- ver|Lyn- gen o- ver|Lyn- gen. Men|Gud for-|
{/d} c3 B c2 |!<(! ^d4 f2!<)! | e4!f! a2 | !>!g4 f2 | e2 e2 f2 | (B3 c) ^d2 | e4 =d e | %17
w: no- get til|Sol- skins-|dag det|glit- rer|for og det|glit- * rer|bag o- ver|
w: glad o- ver|al- le|Ting, Hu|hei, gjør|du sli- ge|svæ- * re|Spring o- ver|
w: bar- me sig|er du|der! "Aa|Kjæ- re|hvor tør du|dan- * se|her o- ver|
 c2 !>!c2 B c | A2 !>!A2!p! B2 |!<(! E3 F G2!<)! | !fermata!A6 |] %21
w: Lyn- gen o- ver|Lyn- gen." Tral-|la la la|la.|
w: Lyn- gen o- ver|Lyn- gen!" Tral-|la la la|la.|
w: Lyn- gen o- ver|Lyn- gen?" Tral-|la la la|la.|
V:2
!mf! E2 | A A A2 A A | A G F2 G G | A2 !>!A2 G A | G2 !>!G2!f! E2 | A B c c B ^A | B ^A (cB) =A B | %7
w: 1.Og|Ræ- ven laa un- der|Bir- ke- rod bort- ved|Lyn- gen bort- ved|Lyn- gen, og|Ha- ren hop- pe- de paa|let- te Fod _ o- ver|
w: 2.Og|Ræ- ven lo un- der|Bir- ke- rod bort- ved|Lyn- gen bort- ved|Lyn- gen, og|Ha- ren hop- pe- de i|vil- de Mod _ o- ver|
w: 3.Og|Ræ- ven ven- ted bag|Bir- ke- rod bort- ved|Lyn- gen bort- ved|Lyn- gen, og|Ha- ren tum- le- de ham|midt i- mod _ o- ver|
 E2 !>!A2 G E | E2 !>!E2!mf! A2 | G4 G2 | A3 G A2 |!<(! (F2 B2) A2!<)! | (G2 B2)!f! e2 | %13
w: Lyn- gen o- ver|Lyn- gen. "Det|er vel|no- get til|Sol- * skins-|dag _ det|
w: Lyn- gen o- ver|Lyn- gen. "Jeg|er saa|glad o- ver|al- * le|Ting, _ Hu|
w: Lyn- gen o- ver|Lyn- gen. Men|Gud for-|bar- me sig|er _ du|der! _ "Aa|
 !>!e4 ^d2 | c2 c2 c2 | (B3 ^A) =A2 | (G2 A2) B B | A2 !>!A2 G G | A2 !>!A2!p! B2 | %19
w: glit- rer|for og det|glit- * rer|bag _ o- ver|Lyn- gen o- ver|Lyn- gen." Tral-|
w: hei, gjør|du sli- ge|svæ- * re|Spring _ o- ver|Lyn- gen o- ver|Lyn- gen!" Tral-|
w: Kjæ- re|hvor tør du|dan- * se|her _ o- ver|Lyn- gen o- ver|Lyn- gen?" Tral-|
!<(! E3 ^D =D2!<)! | !fermata!C6 |] %21
w: la la la|la.|
w: la la la|la.|
w: la la la|la.|
V:3
!mf! E,2 | E, E, E,2 E, E, | E, E, E,2 E, E, | (C,D,) !>!E,2 E, E, | E,2 !>!E,2!f! E,2 | %5
w: 1.Og|Ræ- ven laa un- der|Bir- ke- rod bort- ved|Lyn- * gen bort- ved|Lyn- gen, og|
w: 2.Og|Ræ- ven lo un- der|Bir- ke- rod bort- ved|Lyn- * gen bort- ved|Lyn- gen, og|
w: 3.Og|Ræ- ven ven- ted bag|Bir- ke- rod bort- ved|Lyn- * gen bort- ved|Lyn- gen, og|
 E, E, E, =G, F, E, | F, E, (C,D,) F, F, | E,2 !>!E,2 D, D, | C,2 !>!C,2!mf! E,2 | E,4 E,2 | %10
w: Ha- ren hop- pe- de paa|let- te Fod _ o- ver|Lyn- gen o- ver|Lyn- gen. "Det|er vel|
w: Ha- ren hop- pe- de i|vil- de Mod _ o- ver|Lyn- gen o- ver|Lyn- gen. "Jeg|er saa|
w: Ha- ren tum- le- de ham|midt i- mod _ o- ver|Lyn- gen o- ver|Lyn- gen. Men|Gud for-|
 E,2 E,2 E,2 |!<(! (A,2 F,2) ^D,2!<)! | (E,2 G,2)!f! C2 | !>!B,4 A,2 | G,2 G,2 A,2 | %15
w: no- get til|Sol- * skins-|dag _ det|glit- rer|for og det|
w: glad o- ver|al- * le|Ting, _ Hu|hei, gjør|du sli- ge|
w: bar- me sig|er _ du|der! _ "Aa|Kjæ- re|hvor tør du|
 (G,3 =G,) F,2 | (E,2 F,2) G, G, | A,2 !>!E,2 ^E, E, | F,2 !>!F,2!p! ^D,2 |!<(! E,4 E,2!<)! | %20
w: glit- * rer|bag _ o- ver|Lyn- gen o- ver|Lyn- gen." Tral-|la la|
w: svæ- * re|Spring _ o- ver|Lyn- gen o- ver|Lyn- gen!" Tral-|la la|
w: dan- * se|her _ o- ver|Lyn- gen o- ver|Lyn- gen?" Tral-|la la|
 !fermata!E,6 |] %21
w: la.|
w: la.|
w: la.|
V:4
!mf! E,2 | A,, B,, C,2 B,, A,, | E, E, E,2 E, E, | E,2 !>!C,2 B,, A,, | E,2 !>![E,,E,]2!f! E,2 | %5
w: 1.Og|Ræ- ven laa un- der|Bir- ke- rod bort- ved|Lyn- gen bort- ved|Lyn- gen, og|
w: 2.Og|Ræ- ven lo un- der|Bir- ke- rod bort- ved|Lyn- gen bort- ved|Lyn- gen, og|
w: 3.Og|Ræ- ven ven- ted bag|Bir- ke- rod bort- ved|Lyn- gen bort- ved|Lyn- gen, og|
 A,, A,, ^A,, A,, B,, C, | D, C, (^A,,B,,) E, D, | C,2 !>!A,,2 E, E, | A,,2 !>!A,,2!mf! (A,,C,) | %9
w: Ha- ren hop- pe- de paa|let- te Fod _ o- ver|Lyn- gen o- ver|Lyn- gen. "Det _|
w: Ha- ren hop- pe- de i|vil- de Mod _ o- ver|Lyn- gen o- ver|Lyn- gen. "Jeg _|
w: Ha- ren tum- le- de ham|midt i- mod _ o- ver|Lyn- gen o- ver|Lyn- gen. Men _|
 E,4 E,2 | A,,2 A,,2 A,,2 |!<(! B,,4 B,,2!<)! | E,4!f! E,2 | (!>!E,2 B,,2) ^B,,2 | C,2 C,2 A,,2 | %15
w: er vel|no- get til|Sol- skins-|dag det|glit- * rer|for og det|
w: er saa|glad o- ver|al- le|Ting, Hu|hei, _ gjør|du sli- ge|
w: Gud for-|bar- me sig|er du|der! "Aa|Kjæ- * re|hvor tør du|
 B,,4 B,,2 | E,4 E, E, | A,,2 !>!A,,2 C, C, | F,2 !>!F,2!p! B,,2 |!<(! E,4 E,2!<)! | %20
w: glit- rer|bag o- ver|Lyn- gen o- ver|Lyn- gen." Tral-|la la|
w: svæ- re|Spring o- ver|Lyn- gen o- ver|Lyn- gen!" Tral-|la la|
w: dan- se|her o- ver|Lyn- gen o- ver|Lyn- gen?" Tral-|la la|
 !fermata!A,,6 |] %21
w: la.|
w: la.|
w: la.|

